X:143
T:Bath Waltz. Le4.143
Q:3/8=50
L:1/8
B:L.Leadley MS#4 c1850
Z:vmp.Mike Hicken 2016 www.village-music-project.org.uk
M:3/8
K:D
A/c/|ddd|d2 A/"sic"c/|fff|f2 d/f/|a2 f/d/|b2 f/d/|cc e/c/|d2 :|
|: d/a/|a/f/f e/f/|e/d/d f/a/|a/f/f e/f/|d2 f/a/|a/f/f e/f/|e/d/d f/a/|(b/g/)(g/e/)(e/c/)|d2 :|
|:A|.d.c.d|e2f|gBe|dcB|dcd|bc' d'/b/|(a/f/)(b/g/)(e/c/)|d2 :|

